X:1
T:Title
%%score { 1 | 2 }
L:1/8
Q:1/4=100
M:4/4
K:G
V:1 treble nm="Grand Piano"
V:2 bass 
V:1
 B3 G cBAG | [EG]4 E4 | D3 G FGcB | A6 z2 | B3 G cBAG | [EG]4 E4 | D3 G FGAB | G6 z2 | %8
w: W.~F.~Sherwin * * * * *||||||||
 [Ec]3 [Ec] [Ec][Ge][=Fd][Ec] | B4 d4 | G3 G FG[Ac][GB] | [FA]6 z2 | [Dd]3 [DB] [DG][DG][DA][=FB] | %13
w: |||||
 [Ec]4 E4 | D3 G FG[CFA][DFB] | [B,G]6 z2 |] %16
w: |||
V:2
 [G,D]3 [G,B,] [G,E][G,D][D,F,C][E,G,B,] | [C,G,]4 [C,G,C]4 | %2
 [G,B,]3 [B,D] [A,CD][G,B,D][F,A,D][G,D] | [D,F,D]6 z2 | [G,D]3 [G,B,] [G,E][G,D][D,F,C][E,G,B,] | %5
 [C,G,]4 [C,G,C]4 | [D,G,B,]3 [D,B,D] [D,A,D][D,B,D][D,CD][D,D] | [G,B,D]6 z2 | %8
 [C,G,]3 [C,G,] [C,G,][C,C][C,G,][C,G,] | [G,D]4 [G,B,G]4 | %10
 [B,D]3 [B,D] [A,CD][K:bass][G,B,D][F,D][G,D] | [D,D]6 z2 | %12
 [B,,G,]3 [B,,G,] [B,,G,][B,,G,][A,,F,][G,,G,] | [C,G,]4 [C,G,C]4 | %14
 [D,G,B,]3 [D,B,D] [D,A,D][D,B,D]D,D, | G,,6 z2 |] %16

